X:179
%%pagewidth 9in
%%vocalfont Baskerville10Pro 14
T:Come you not from Newcastle?
M:C
L:1/8
K:D
%%score 1 2
V:1 clef-treble
V:2 clef-bass octave=-1
[V:1][CE]2|[DF]2A2 D2[CE]2|(D3E) D2[CE]2|[DF]2A2 D2A2 &x4D4|(B2d4)(cB) &[DG]8|
w:O come you from New-cas-*tle, Come you not there a-way?* O*
[V:2]A2-&A,2|A6A2 &D,4F,2A,2|F6A2-&D6A,2|A4x4 &D,4F,4|G,4B,4|
[V:1][DFA]2[DF]2[CE]2D2|B,2B4AG|[DA]2F2 E3D &x4C2x2|D6||[DG(B]c)|
w:met you not my true love, Rid-ing on a bon-ny bay? Why*
[V:2]D2[DF]2[EG]2[FA]2|G4[EG]4|F2D2x4&A,4[A,G]4|[DF]6||G2|
[V:1][DA(d]c)(BA)[Dd]2F2|E2e4E2|D3E [^A,(F]E)(DC)|(B,2B4)[DGB]c|
w:should* not* I love my love, Why should~not my love* love* me?* [Why*
[V:2]F4B4|[GB]4[EG]4|[FB]4F,4|B,4B,,2G2|
[V:1][DA(d]c)(BA)[Dd]2F2|E3F[B,G]2[=CFA]2|[B,GB]2[A,F]2E3D&x4=C2x2|D6||
w:should* not* I speed af-ter him, Since love to all is free?]
[V:2]F4B4|[GB]4E2D2|G,2D,2G4&x4A,4|F6&D6||

